resources/svg/table-left-header.svg

<svg xmlns="http://www.w3.org/2000/svg" viewBox="0 0 14 14" fill="currentColor"><path d="M4,2 L4,12 L12,12 L12,2 L4,2 Z M2,0 L12,0 C13.1045695,0 14,0.8954305 14,2 L14,12 C14,13.1045695 13.1045695,14 12,14 L2,14 C0.8954305,14 0,13.1045695 0,12 L0,2 C0,0.8954305 0.8954305,0 2,0 Z"/></svg>

<svg xmlns="http://www.w3.org/2000/svg" fill="currentColor" viewBox="0 0 14 14"><path d="M4 2v10h8V2H4ZM2 0h10a2 2 0 0 1 2 2v10a2 2 0 0 1-2 2H2a2 2 0 0 1-2-2V2a2 2 0 0 1 2-2Z"/></svg>
